X: 2
T: Blink
R: reel
M: 4/4
L: 1/8
K: Edor
~B3E FEFA|Bdef dB~B2|ABAF DEFB|ABdf edAd|~B3E FEFA|(3Bcd ef dB~B2|ABde f2fe|1dBAd BEFA:|2dBAd BE(3Bcd|:~e3f ed(3Bcd|(3efg fd edBc|d3B ADFA|d2fd ed(3Bcd|~e3f ed(3Bcd|(3efg fd edBc|d2(3Bcd effe|dBAd BE(3Bcd|~e3f ed(3Bcd|(3efg fd edBc|d3B ADFA|df~f2 ABdf|~e3f ed(3Bcd|(3efg fd edBc|d2(3Bcd effe|dBAd BEFA|


Tune 1318	Setting 14659

